X: 03018
T: CATHAL'S FLUTE - first setting
C: Bob McQuillen 22 Apr 77
B: Bob's Note Book 03 #18
Q: "slow air"
R: slow air
%D:1977
Z: 2020 John Chambers <jc:trillian.mit.edu>
M: 3/4
L: 1/4
K: Em
G/A/ \
| BG>B | AFD | EG>B | dBd | ed>B | GAB | AE>D | E2 G/A/ |
| BG>B | AFD | EG>B | dBd | ed>B | GAB | AEE | E2 :|
|: B/d/ \
| e>de | dBA | G>AB | AFD | E>GB | EGB | dB>G | A2 B/d/ |
| e>de | dBA | G>AB | AFD | EG>B | AFD | E>FE | D2 :|
%%begintext align
%% Cathal McConnell is that truly
%% wonderful flute player with the
%% Boys of the Lough. This tune is for him.
%%endtext
